icons/gomix.svg

<?xml version="1.0" encoding="UTF-8" standalone="no"?>
<svg width="256px" height="194px" viewBox="0 0 256 194" version="1.1" xmlns="http://www.w3.org/2000/svg" xmlns:xlink="http://www.w3.org/1999/xlink" preserveAspectRatio="xMidYMid">
	<g>
		<path d="M103.961,133.9317 C103.961,133.9317 114.888,157.3467 113.951,162.6537 C113.015,167.9607 119.878,141.2827 125.19,137.6777 C133.932,131.7467 103.961,133.9317 103.961,133.9317" fill="#3458D0"></path>
		<path d="M103.2747,157.8879 C102.3737,164.0049 99.0227,188.1329 100.6947,191.5589 C102.3657,194.9859 104.6857,191.9079 104.8437,190.0999 C105.0017,188.2909 107.6187,137.4919 107.6187,137.4919 C107.6187,137.4919 104.1757,151.7709 103.2747,157.8879" fill="#3458D0"></path>
		<path d="M105.2428,173.0039 C105.2428,173.0039 103.4058,185.5289 105.0658,187.5679 C106.7258,189.6069 109.7028,188.3379 109.5628,182.1299 C109.4238,175.9209 107.5348,137.2569 107.5348,137.2569 L105.2428,173.0039 Z" fill="#FF686C"></path>
		<path d="M108.2032,156.1992 C108.2032,156.1992 108.0482,180.9852 110.2012,183.3462 C112.3532,185.7072 115.3122,183.4262 114.2752,178.5972 C113.5092,175.0342 108.4562,144.3302 108.4562,144.3302 L108.2922,143.3312 C108.0122,141.6172 107.4532,138.1902 107.4532,138.1902 L108.2032,156.1992 Z" fill="#F49CB1"></path>
		<path d="M111.6102,167.0008 C111.6102,167.0008 112.6742,175.5998 113.9982,177.1728 C115.3222,178.7458 119.0002,178.5788 117.3322,172.6018 C115.6652,166.6248 107.4262,138.5008 107.4262,138.5008 L111.6102,167.0008 Z" fill="#009EE5"></path>
		<path d="M111.1662,151.2899 C111.1662,151.2899 114.6572,168.3329 116.7682,170.7309 C118.8792,173.1289 122.6052,170.8749 120.0202,167.0049 C117.4362,163.1349 107.5952,137.8569 107.5952,137.8569 L111.1662,151.2899 Z" fill="#009EE5"></path>
		<path d="M118.3079,40.3626 L109.8929,34.7526 L128.6239,12.7996 L128.6189,13.0076 C134.8329,5.1406 145.1039,-0.0004 156.7219,-0.0004 C173.0939,-0.0004 186.7899,14.4226 190.2309,25.5976 C197.6699,24.9396 206.2019,24.7156 214.7899,25.5996 C239.0549,28.0976 255.6879,31.9426 255.6879,31.9426 C255.6879,31.9426 214.6599,29.7376 190.5909,34.2806 C188.2349,44.0866 177.3199,57.0936 163.3809,60.4006 C164.7059,66.7746 165.7039,75.0216 164.8389,83.6686 C162.9659,102.3996 164.8389,98.9656 152.9759,115.1996 C141.1119,131.4346 116.6149,145.3386 107.9149,139.5226 C99.2149,133.7066 91.8539,92.3486 93.1919,86.2096 C94.3699,80.8066 113.6929,48.1196 118.3079,40.3626" fill="#3458D0"></path>
		<path d="M125.4687,39.1346 C125.4687,39.1346 58.6587,0.7346 24.6297,8.5396 C17.6017,10.1516 16.7257,14.5066 19.7607,20.4036 C21.1977,23.1936 27.6447,24.4316 30.5947,27.7856 C33.1277,30.6636 31.9947,35.5996 35.3177,38.7186 C37.8227,41.0706 44.3367,40.9866 47.1417,43.3956 C50.5877,46.3536 50.3847,51.8086 54.0667,54.7366 C76.3717,72.4726 100.8057,88.4616 100.8057,88.4616 L125.4687,39.1346 Z" fill="#3458D0"></path>
		<path d="M43.8204,8.0841 C36.8244,7.2211 30.2754,7.2441 24.6294,8.5391 C17.6014,10.1511 16.7254,14.5071 19.7614,20.4031 C21.1974,23.1941 27.6444,24.4321 30.5954,27.7851 C33.1274,30.6641 31.9944,35.6001 35.3174,38.7191 C37.8234,41.0701 44.3364,40.9871 47.1414,43.3951 C50.5874,46.3531 50.3854,51.8091 54.0664,54.7361 C71.3804,68.5041 88.4924,76.6371 95.2844,79.5881 C90.6894,73.3041 82.9394,64.2891 70.9244,54.7361 C67.2434,51.8091 67.4464,46.3531 64.0004,43.3951 C61.1944,40.9871 54.6814,41.0701 52.1754,38.7191 C48.8534,35.6001 49.9864,30.6641 47.4534,27.7851 C44.5034,24.4321 38.0554,23.1941 36.6194,20.4031 C33.5844,14.5071 34.4604,10.1511 41.4884,8.5391 C42.2494,8.3651 43.0274,8.2131 43.8204,8.0841" fill="#FF686C"></path>
		<path d="M54.6501,9.9443 C50.0131,8.8503 45.5651,8.0873 41.5221,7.8053 C34.2501,7.2973 33.5841,14.5063 36.6191,20.4033 C38.0561,23.1943 44.5031,24.4323 47.4541,27.7853 C49.9861,30.6633 48.8531,35.6003 52.1761,38.7183 C54.6811,41.0703 61.1951,40.9873 64.0001,43.3953 C67.4461,46.3533 67.2431,51.8093 70.9251,54.7363 C93.2301,72.4723 101.7761,71.1803 101.7761,71.1803 L102.6291,68.2653 C98.6361,64.0653 93.7321,59.4663 87.7831,54.7363 C84.1021,51.8093 84.3041,46.3533 80.8581,43.3953 C78.0531,40.9873 71.5401,41.0703 69.0341,38.7183 C65.7121,35.6003 66.8441,30.6633 64.3121,27.7853 C61.3621,24.4323 54.9141,23.1943 53.4781,20.4033 C51.0941,15.7723 51.1231,12.0913 54.6501,9.9443" fill="#F49CB1"></path>
		<path d="M109.02,78.9854 C109.02,78.9854 85.542,93.0344 67.434,94.5954 C63.427,94.9404 59.893,89.8804 53.698,89.2874 C49.703,88.9054 41.794,92.4674 37.463,91.7854 C31.658,90.8714 30.439,86.5324 24.976,85.2274 C19.921,84.0204 14.455,86.6284 10.587,85.2274 C4.736,83.1094 0.733,80.8464 0.064,78.6734 C-2.434,70.5564 69.059,48.0784 86.23,48.0784 C103.4,48.0784 116.825,51.8244 116.825,51.8244 L109.02,78.9854 Z" fill="#3458D0"></path>
		<path d="M4.2058,73.6611 C1.2228,75.5931 -0.3442,77.3031 0.0638,78.6291 C0.7328,80.8021 4.7358,83.0651 10.5868,85.1841 C14.4558,86.5841 19.9208,83.9771 24.9758,85.1841 C30.4388,86.4881 31.6578,90.8271 37.4638,91.7411 C41.7948,92.4241 49.7028,88.8621 53.6978,89.2441 C59.8928,89.8371 63.4268,94.8971 67.4338,94.5511 C85.5418,92.9901 100.8388,88.6631 100.8388,88.6631 L100.7808,88.2581 C98.3198,87.6581 83.9108,84.3891 67.4338,85.8101 C63.4268,86.1551 59.8928,81.0951 53.6978,80.5021 C49.7028,80.1201 41.7948,83.6821 37.4638,83.0001 C31.6578,82.0861 30.4388,77.7471 24.9758,76.4421 C19.9208,75.2351 14.4558,77.8431 10.5868,76.4421 C8.0828,75.5361 5.9168,74.6021 4.2058,73.6611 L4.2058,73.6611 Z" fill="#FF686C"></path>
		<path d="M4.1463,73.6282 C5.8663,74.5802 8.0533,75.5252 10.5873,76.4422 C14.4553,77.8432 19.9213,75.2352 24.9753,76.4422 C30.4383,77.7472 31.6583,82.0852 37.4633,83.0002 C41.7943,83.6822 49.7023,80.1202 53.6973,80.5022 C59.8923,81.0952 63.4273,86.1552 67.4343,85.8102 C85.5413,84.2492 100.8393,88.3512 100.8393,88.3512 L100.8133,88.0312 C98.7333,86.1182 87.2193,76.3272 70.8683,77.7362 C66.8613,78.0822 59.8923,72.3542 53.6973,71.7612 C49.7023,71.3792 41.7943,74.9412 37.4633,74.2582 C31.6583,73.3442 33.4053,71.8052 24.6633,69.3072 C16.3603,66.9352 5.2413,73.0122 4.1463,73.6282" fill="#F49CB1"></path>
		<path d="M117.9833,40.1371 L118.3213,40.3631 C118.3043,40.3911 118.2873,40.4201 118.2703,40.4491 C121.4083,43.8111 125.8603,47.1551 131.7603,48.3901 C145.1823,51.2001 155.7963,56.5061 165.1613,75.5431 C165.0453,69.9381 164.2953,64.7361 163.3943,60.4001 C177.3343,57.0941 188.2493,44.0861 190.6043,34.2801 C214.6733,29.7381 255.7013,31.9421 255.7013,31.9421 C255.7013,31.9421 239.0683,28.0981 214.8043,25.6001 C206.2153,24.7161 197.6833,24.9401 190.2443,25.5971 C186.8033,14.4231 173.1073,0.0001 156.7353,0.0001 C145.1173,0.0001 134.8463,5.1401 128.6323,13.0071 L128.6383,12.8001 L112.3903,31.8411 L112.4043,31.8441 C112.4043,31.8441 114.1783,35.9541 117.9833,40.1371" fill="#3458D0"></path>
		<path d="M163.5902,11.8634 C171.8662,11.8634 178.5752,18.5724 178.5752,26.8484 C178.5752,35.1254 171.8662,41.8344 163.5902,41.8344 C155.3142,41.8344 148.6052,35.1254 148.6052,26.8484 C148.6052,18.5724 155.3142,11.8634 163.5902,11.8634" fill="#000000"></path>
		<path d="M178.3631,29.3779 C177.1611,36.4499 171.0041,41.8339 163.5901,41.8339 C155.3141,41.8339 148.6051,35.1249 148.6051,26.8489 C148.6051,18.5729 155.3141,11.8639 163.5901,11.8639 C171.8661,11.8639 178.5761,18.5729 178.5761,26.8489 C178.5761,26.9039 178.5751,26.9599 178.5751,27.0149 C178.4961,20.7029 173.3551,15.6099 167.0241,15.6099 C160.6451,15.6099 155.4731,20.7819 155.4731,27.1609 C155.4731,33.5409 160.6451,38.7119 167.0241,38.7119 C172.6461,38.7119 177.3291,34.6969 178.3631,29.3779" fill="#FFFFFF"></path>
		<path d="M170.4585,27.4732 C172.1825,27.4732 173.5805,28.8712 173.5805,30.5952 C173.5805,32.3192 172.1825,33.7172 170.4585,33.7172 C168.7345,33.7172 167.3365,32.3192 167.3365,30.5952 C167.3365,28.8712 168.7345,27.4732 170.4585,27.4732" fill="#FFFFFF"></path>
	</g>
</svg>

<svg xmlns="http://www.w3.org/2000/svg" viewBox="0 0 255.701 193.106">
  <path fill="#3458d0" d="M103.961 133.932s10.927 23.415 9.99 28.722c-.936 5.307 5.927-21.37 11.239-24.976 8.742-5.93-21.229-3.746-21.229-3.746"/>
  <path fill="#3458d0" d="M103.275 157.888c-.901 6.117-4.252 30.245-2.58 33.671 1.67 3.427 3.99.35 4.149-1.459.158-1.809 2.775-52.608 2.775-52.608s-3.443 14.28-4.344 20.396"/>
  <path fill="#ff686c" d="M105.243 173.004s-1.837 12.525-.177 14.564c1.66 2.04 4.637.77 4.497-5.438-.14-6.209-2.028-44.873-2.028-44.873z"/>
  <path fill="#f49cb1" d="M108.203 156.2s-.155 24.786 1.998 27.147c2.152 2.36 5.111.08 4.074-4.75-.766-3.562-5.819-34.266-5.819-34.266l-.164-1-.839-5.14z"/>
  <path fill="#009ee5" d="M111.61 167.001s1.064 8.6 2.388 10.172c1.324 1.573 5.002 1.406 3.334-4.57-1.667-5.978-9.906-34.102-9.906-34.102z"/>
  <path fill="#009ee5" d="M111.166 151.29s3.491 17.043 5.602 19.441c2.111 2.398 5.837.144 3.252-3.726-2.584-3.87-12.425-29.148-12.425-29.148z"/>
  <path fill="#3458d0" d="m118.308 40.363-8.415-5.61 18.73-21.953-.004.208C134.833 5.141 145.104 0 156.722 0c16.372 0 30.068 14.423 33.509 25.598 7.439-.658 15.97-.882 24.559.002 24.265 2.498 40.898 6.343 40.898 6.343s-41.028-2.205-65.097 2.338c-2.356 9.806-13.271 22.813-27.21 26.12 1.325 6.374 2.323 14.621 1.458 23.268-1.873 18.731 0 15.297-11.863 31.531-11.864 16.235-36.361 30.139-45.061 24.323-8.7-5.816-16.061-47.174-14.723-53.313 1.178-5.403 20.5-38.09 25.116-45.847"/>
  <path fill="#3458d0" d="M125.469 39.135S58.659.735 24.629 8.54c-7.027 1.612-7.903 5.967-4.868 11.864 1.437 2.79 7.884 4.028 10.834 7.382 2.533 2.878 1.4 7.814 4.723 10.933 2.505 2.352 9.019 2.268 11.824 4.677 3.446 2.958 3.243 8.413 6.925 11.341 22.305 17.736 46.739 33.725 46.739 33.725z"/>
  <path fill="#ff686c" d="M43.82 8.085c-6.996-.864-13.545-.84-19.19.454-7.029 1.613-7.905 5.969-4.869 11.865 1.436 2.79 7.883 4.029 10.834 7.382 2.532 2.878 1.4 7.814 4.722 10.933 2.506 2.351 9.02 2.268 11.824 4.676 3.446 2.958 3.244 8.414 6.925 11.341C71.38 68.505 88.492 76.638 95.284 79.59c-4.595-6.285-12.345-15.3-24.36-24.853-3.68-2.927-3.478-8.383-6.924-11.34-2.806-2.409-9.319-2.326-11.825-4.677-3.322-3.119-2.189-8.055-4.722-10.934-2.95-3.353-9.398-4.59-10.834-7.382-3.035-5.896-2.159-10.252 4.87-11.864a37.422 37.422 0 0 1 2.331-.455"/>
  <path fill="#f49cb1" d="M54.65 9.945c-4.637-1.094-9.085-1.857-13.128-2.14-7.272-.507-7.938 6.702-4.903 12.599 1.437 2.79 7.884 4.029 10.835 7.382 2.532 2.878 1.4 7.815 4.722 10.933 2.505 2.352 9.02 2.269 11.824 4.677 3.446 2.958 3.243 8.414 6.925 11.34 22.305 17.737 30.851 16.445 30.851 16.445l.853-2.915c-3.993-4.2-8.897-8.8-14.846-13.53-3.68-2.926-3.479-8.382-6.925-11.34-2.805-2.408-9.318-2.325-11.824-4.677-3.322-3.118-2.19-8.055-4.722-10.933-2.95-3.353-9.398-4.591-10.834-7.382-2.384-4.631-2.355-8.312 1.172-10.46"/>
  <path fill="#3458d0" d="M109.02 78.986s-23.478 14.049-41.586 15.61c-4.007.345-7.541-4.715-13.736-5.308-3.995-.382-11.904 3.18-16.235 2.498-5.805-.914-7.024-5.253-12.487-6.558-5.055-1.207-10.521 1.4-14.389 0C4.736 83.11.733 80.847.064 78.674c-2.498-8.117 68.995-30.595 86.166-30.595 17.17 0 30.595 3.746 30.595 3.746z"/>
  <path fill="#ff686c" d="M4.206 73.662c-2.983 1.931-4.55 3.641-4.142 4.967.669 2.174 4.672 4.437 10.523 6.556 3.869 1.4 9.334-1.207 14.389 0 5.463 1.304 6.682 5.643 12.488 6.557 4.33.683 12.239-2.88 16.234-2.497 6.195.593 9.729 5.653 13.736 5.307 18.108-1.561 33.405-5.888 33.405-5.888l-.058-.405c-2.461-.6-16.87-3.87-33.347-2.448-4.007.345-7.541-4.715-13.736-5.308-3.995-.382-11.903 3.18-16.234 2.498-5.806-.914-7.025-5.253-12.488-6.558-5.055-1.207-10.52 1.4-14.39 0-2.503-.906-4.67-1.84-6.38-2.781z"/>
  <path fill="#f49cb1" d="M4.146 73.629c1.72.952 3.907 1.897 6.441 2.814 3.868 1.4 9.334-1.207 14.388 0 5.463 1.305 6.683 5.643 12.488 6.558 4.331.682 12.24-2.88 16.234-2.498 6.195.593 9.73 5.653 13.737 5.308 18.107-1.561 33.405 2.54 33.405 2.54l-.026-.32c-2.08-1.912-13.594-11.703-29.945-10.294-4.007.346-10.976-5.382-17.17-5.975-3.996-.382-11.904 3.18-16.235 2.497-5.805-.914-4.058-2.453-12.8-4.951-8.303-2.372-19.422 3.705-20.517 4.32"/>
  <path fill="#3458d0" d="m117.983 40.137.338.226-.05.086c3.137 3.362 7.59 6.706 13.49 7.941 13.421 2.81 24.035 8.116 33.4 27.153-.116-5.605-.866-10.807-1.767-15.143 13.94-3.306 24.855-16.314 27.21-26.12 24.07-4.542 65.097-2.338 65.097-2.338s-16.633-3.844-40.897-6.342c-8.589-.884-17.12-.66-24.56-.003C186.804 14.423 173.107 0 156.735 0c-11.618 0-21.889 5.14-28.103 13.007l.006-.207-16.248 19.041.014.003s1.774 4.11 5.58 8.293"/>
  <path d="M163.59 11.864c8.276 0 14.985 6.709 14.985 14.985 0 8.277-6.709 14.986-14.985 14.986s-14.985-6.71-14.985-14.986 6.71-14.985 14.985-14.985"/>
  <path fill="#fff" d="M178.363 29.378c-1.202 7.072-7.359 12.456-14.773 12.456-8.276 0-14.985-6.709-14.985-14.985s6.71-14.985 14.985-14.985c8.276 0 14.986 6.71 14.986 14.985v.166c-.08-6.312-5.22-11.405-11.552-11.405-6.379 0-11.55 5.172-11.55 11.551 0 6.38 5.171 11.551 11.55 11.551 5.622 0 10.305-4.015 11.34-9.334"/>
  <path fill="#fff" d="M170.459 27.474a3.122 3.122 0 1 1-.001 6.244 3.122 3.122 0 0 1 0-6.244"/>
</svg>
